static/images/mobile/copyright/wikipedia-wordmark-zh-hans.svg

<?xml version="1.0" encoding="UTF-8" standalone="no"?>
<!-- Created with Inkscape (http://www.inkscape.org/) -->

<svg
   width="104.99"
   height="22.4"
   viewBox="0 0 27.778604 5.9266667"
   version="1.1"
   id="svg535"
   inkscape:version="1.1.2 (b8e25be833, 2022-02-05)"
   sodipodi:docname="Wikipedia-wordmark-zh-hans.svg"
   xmlns:inkscape="http://www.inkscape.org/namespaces/inkscape"
   xmlns:sodipodi="http://sodipodi.sourceforge.net/DTD/sodipodi-0.dtd"
   xmlns="http://www.w3.org/2000/svg"
   xmlns:svg="http://www.w3.org/2000/svg">
  <sodipodi:namedview
     id="namedview537"
     pagecolor="#ffffff"
     bordercolor="#666666"
     borderopacity="1.0"
     inkscape:pageshadow="2"
     inkscape:pageopacity="0.0"
     inkscape:pagecheckerboard="0"
     inkscape:document-units="px"
     showgrid="false"
     units="px"
     inkscape:zoom="5"
     inkscape:cx="55.8"
     inkscape:cy="8.5"
     inkscape:window-width="1280"
     inkscape:window-height="668"
     inkscape:window-x="-6"
     inkscape:window-y="-6"
     inkscape:window-maximized="1"
     inkscape:current-layer="layer1" />
  <defs
     id="defs532" />
  <g
     inkscape:label="Layer 1"
     inkscape:groupmode="layer"
     id="layer1">
    <path
       d="m 14.643134,0.7385368 h 2.241953 c -0.02157,0.3961236 -0.05696,0.791845 -0.11308,1.1846587 H 16.268869 L 15.484877,1.604698 v 4.2773256 h 0.09517 c 0.317744,0 0.617155,-0.161052 0.617155,-0.241578 v -0.318603 h 2.454427 v 0.528352 h 0.101534 c 0.254262,0 0.60299,-0.145643 0.617154,-0.193181 V 2.1816325 c 0.121686,-0.023178 0.203301,-0.069202 0.248341,-0.1265343 L 18.92805,1.5314692 18.573632,1.9231928 h -1.641534 c 0.3095,-0.3305995 0.601473,-0.7715726 0.840287,-1.184656 h 2.397146 c 0.07211,0 0.130626,-0.026009 0.154322,-0.08481 L 19.556473,0.0676725 19.118711,0.6054937 H 14.606434 Z M 7.217739,4.8644966 C 8.248914,4.5473016 9.091104,4.0210291 9.546843,3.3120992 h 1.467224 c 0.389117,0.6401621 1.034803,1.2202084 1.727028,1.4981184 0.03931,-0.305742 0.186618,-0.5678116 0.455127,-0.7850636 l 0.0039,-0.058423 C 12.551519,3.9259882 11.692408,3.712943 11.182005,3.3120992 h 1.810025 c 0.07358,0 0.129273,-0.026194 0.148224,-0.085799 l -0.665487,-0.5701083 -0.3798,0.5292328 H 11.667646 V 0.95042574 h 1.165241 c 0.07358,0 0.129188,-0.025982 0.148141,-0.085571 l -0.639977,-0.5386896 -0.360746,0.4975834 h -0.312659 v -0.5786252 c 0.159793,-0.02368 0.214305,-0.067421 0.230611,-0.1558846 l -0.942934,-0.078076 v 0.8125857 h -1.57933 v -0.5776753 c 0.153141,-0.029451 0.207184,-0.073226 0.223788,-0.1569032 l -0.929744,-0.078007 v 0.8125857 H 7.456219 l 0.03619,0.1266772 H 8.670033 V 3.185422 H 7.209145 l 0.04072,0.1266772 h 1.40576 C 8.337286,3.9023476 7.814909,4.4380386 7.17317,4.7907176 Z m 14.471789,-0.170217 c 0.402678,-0.3139092 0.760969,-0.7321732 1.076985,-1.1855843 v 2.4179713 h 0.107899 c 0.340956,0 0.56623,-0.145195 0.56623,-0.184287 v -3.142888 c 0.183668,0.3085624 0.365109,0.6835088 0.412509,0.9774635 0.06584,0.067318 0.151321,0.098422 0.243785,0.098422 0.161282,0 0.286623,-0.135898 0.286623,-0.32072 0,-0.2550689 -0.239099,-0.6021626 -0.942917,-0.833763 V 2.1199767 h 0.910614 c 0.06787,0 0.13154,-0.026606 0.158871,-0.07778 L 23.910523,1.509702 23.581927,1.9932995 H 23.440642 V 0.826188 c 0.200993,-0.041831 0.401323,-0.086273 0.599609,-0.1396577 0.09232,0.031732 0.169302,0.04563 0.231714,0.04563 0.06323,0 0.108794,-0.010901 0.145831,-0.033819 l -0.77433,-0.6835881 c -0.425447,0.3244321 -1.242005,0.7500329 -1.921158,0.9885072 l 0.01223,0.039762 c 0.328165,-0.01942 0.698805,-0.060325 1.031971,-0.10432776 V 1.9933 h -0.997384 l 0.03619,0.1266772 h 0.878452 c -0.200761,0.9001919 -0.553949,1.853266 -1.054272,2.5178754 z m 2.324987,-0.4416818 0.06432,0.1240525 2.042401,-0.3905541 v 1.9087414 h 0.114263 c 0.261678,0 0.559864,-0.147868 0.559864,-0.216114 V 3.8559344 l 0.848452,-0.1631659 c 0.07365,-0.014155 0.121026,-0.047871 0.134726,-0.091495 l -0.598257,-0.4677331 -0.290523,0.5748708 -0.0944,0.023601 V 0.3604049 c 0.159977,-0.023707 0.208761,-0.071141 0.224223,-0.1563741 l -0.89835,-0.089837 v 3.7398383 z m -5.36289,-0.6367622 v 1.572964 H 16.197198 V 3.6158356 Z M 16.197198,3.4891558 V 2.0498727 h 2.454427 v 1.4392831 z m -8.59702,2.2673738 h 5.073568 c 0.07364,0 0.141725,-0.02789 0.155411,-0.08413 l -0.780912,-0.599377 -0.437867,0.55046 h -1.118139 v -0.961855 h 1.188459 c 0.07358,0 0.12909,-0.02572 0.148042,-0.08531 L 11.182541,4.0616691 10.821352,4.5349536 H 10.492239 V 3.8919363 c 0.153399,-0.017701 0.202045,-0.059214 0.217598,-0.1422718 L 9.773551,3.6776423 V 4.5349536 H 8.519293 l 0.03619,0.126677 h 1.218064 v 0.961855 H 7.558889 Z M 10.955325,2.5163887 V 3.185422 H 9.375995 V 2.5163887 Z M 9.375995,1.7334072 h 1.57933 v 0.6563043 h -1.57933 z m 1.57933,-0.78298146 V 1.6003641 H 9.375995 V 0.95042574 Z M 25.183288,1.7170506 c 0.09181,0.064437 0.182327,0.093247 0.262642,0.093247 0.188523,0 0.328578,-0.1551067 0.328578,-0.3515228 0,-0.2800615 -0.300808,-0.6448346 -1.115648,-0.7817274 l -0.03785,0.051073 c 0.247777,0.25897424 0.504166,0.65092 0.562279,0.9889305 z M 25.0809,3.2568251 c 0.0897,0.059317 0.177464,0.085722 0.255783,0.085722 0.192823,0 0.335143,-0.1572763 0.335143,-0.3526234 0,-0.2769738 -0.302239,-0.6305842 -1.117632,-0.7396507 l -0.03935,0.052999 c 0.251468,0.2452661 0.49508,0.6159129 0.566055,0.953553 z M 1.7514747,3.0343926 1.8197468,3.0858276 C 2.096874,2.7522171 2.2725206,2.5524514 2.4460282,2.312686 v 3.6081756 h 0.1014389 c 0.3179704,0 0.540266,-0.166806 0.540266,-0.205861 v -0.296564 h 2.6954478 c 0.073026,0 0.1234321,-0.01767 0.1418383,-0.0688 L 5.2728538,4.7820206 4.9060064,5.2918756 H 4.4883486 V 4.0637964 h 1.1447087 c 0.078243,0 0.1241544,-0.017992 0.1420773,-0.069117 L 5.1863007,3.4658619 4.8513768,3.9372356 H 4.4883486 V 2.7600355 h 1.1447087 c 0.078243,0 0.1242322,-0.018203 0.1421556,-0.069339 L 5.1862914,2.1557589 4.8513773,2.6271168 H 4.4883492 V 1.4626379 h 1.2133575 c 0.078242,0 0.1240017,-0.017542 0.1419256,-0.068673 L 5.2164243,0.8202084 4.856083,1.3297165 H 3.1979923 L 3.068518,1.2922542 C 3.2152019,0.98704674 3.3354511,0.6655568 3.44223,0.3651435 3.5765391,0.3597725 3.6338265,0.3291126 3.6638495,0.2678192 L 2.7492399,5.689e-4 C 2.6339271,0.94812384 2.2408663,2.1226834 1.7514747,3.0343926 Z m -1.6738841,1.833941 0.3284601,0.822751 c 0.065962,-0.02919 0.1163064,-0.08984 0.1295906,-0.154945 C 1.2625242,5.0924306 1.8959161,4.6679406 2.24198,4.4017756 L 2.2183389,4.3285835 C 1.3954689,4.5614166 0.4716872,4.7889586 0.0775906,4.8683336 Z M 3.8657232,4.0637964 V 5.2918756 H 3.0877299 V 4.0637964 Z m 0,-1.3037609 V 3.9372356 H 3.0877299 V 2.7600355 Z M 3.0877299,2.6271168 V 1.4626352 H 3.8657232 V 2.6271168 Z M 3.8355234,0 3.7848647,0.0396875 C 3.9424693,0.3020563 4.0597196,0.6955843 4.0428334,1.0494751 4.5831925,1.6047218 5.3046247,0.460375 3.8355234,0 Z M 0.5441572,1.8123959 C 0.9335151,1.3963915 1.422781,0.8068152 1.6710224,0.4053973 1.7799122,0.3974862 1.8456016,0.3621379 1.8705153,0.3094646 L 0.9335151,0.0396875 C 0.8485418,0.4951069 0.6388023,1.2198165 0.424044,1.7983518 0.3008498,1.7870008 0.1642247,1.7735078 0,1.7568708 L 0.2841117,2.6234845 C 0.3462067,2.6040375 0.400831,2.5550955 0.4338156,2.4761618 0.7858879,2.2977347 0.9812877,2.18489 1.27982,1.9980068 1.1039319,2.428894 0.9099539,2.9107929 0.6807205,3.3583329 c -0.218054,0.00717 -0.4212352,0.00981 -0.6542622,0.012459 L 0.3178302,4.2201047 C 0.3840043,4.1936989 0.4300609,4.1475714 0.4516784,4.0815526 1.1400308,3.8100319 1.8740784,3.5048985 2.1867495,3.3566921 L 2.1753116,3.2667788 C 1.741129,3.3041274 1.2937866,3.3291728 0.8485423,3.3504638 1.3549392,2.8369817 1.8446139,2.0482878 2.1203238,1.5534032 2.2222294,1.5526095 2.3004595,1.5249182 2.3371244,1.4585157 L 1.5725508,1.167257 C 1.5142758,1.3606384 1.4300221,1.6218774 1.3279226,1.8786423 1.1191875,1.8706042 0.7752292,1.8335626 0.5441572,1.8123959 Z"
       id="wikipedia"
       style="stroke-width:0.264583" />
  </g>
</svg>

<svg width="104.99" height="22.4" viewBox="0 0 27.779 5.927" xmlns="http://www.w3.org/2000/svg"><path d="M14.643.739h2.242c-.021.396-.057.791-.113 1.184h-.503l-.784-.318v4.277h.095c.318 0 .617-.161.617-.242v-.318h2.455v.528h.101c.254 0 .603-.145.617-.193V2.182c.122-.024.204-.07.249-.127l-.691-.524-.354.392h-1.642c.31-.33.602-.771.84-1.184h2.398c.072 0 .13-.026.154-.085l-.768-.586-.437.537h-4.513zM7.218 4.864c1.03-.317 1.873-.843 2.329-1.552h1.467c.39.64 1.035 1.22 1.727 1.498.04-.306.187-.568.455-.785l.004-.058c-.648-.041-1.508-.254-2.018-.655h1.81c.074 0 .13-.026.148-.086l-.665-.57-.38.53h-.427V.95h1.165c.073 0 .13-.026.148-.085l-.64-.539-.36.498h-.313V.245c.16-.024.214-.067.23-.156l-.943-.078v.813H9.376V.246c.153-.03.207-.073.224-.157L8.67.011v.813H7.456l.036.126H8.67v2.235H7.21l.04.127h1.406a3.757 3.757 0 0 1-1.483 1.479zm14.472-.17c.402-.314.76-.732 1.077-1.185v2.418h.107c.341 0 .567-.146.567-.185V2.6c.183.31.365.684.412.978a.332.332 0 0 0 .244.098c.161 0 .287-.136.287-.32 0-.255-.24-.603-.943-.834V2.12h.91c.068 0 .132-.027.16-.078l-.6-.532-.33.483h-.14V.826c.2-.042.401-.086.6-.14.092.032.169.046.231.046.063 0 .109-.01.146-.034l-.775-.683c-.425.324-1.242.75-1.92.988l.012.04c.328-.02.698-.06 1.032-.104v1.054h-.998l.036.127h.879c-.201.9-.554 1.853-1.055 2.518zm2.325-.441.064.124 2.042-.39v1.908h.114c.262 0 .56-.148.56-.216V3.856l.849-.163c.073-.014.12-.048.135-.092l-.599-.467-.29.574-.095.024V.36c.16-.023.21-.07.225-.156l-.899-.09v3.74zm-5.363-.637v1.573h-2.455V3.616zm-2.455-.127V2.05h2.455v1.44zM7.6 5.757h5.074c.073 0 .141-.028.155-.085l-.78-.599-.439.55h-1.118v-.961h1.189c.073 0 .129-.026.148-.086l-.646-.514-.362.473h-.329v-.643c.154-.018.202-.06.218-.142l-.936-.072v.857H8.519l.036.127h1.219v.961H7.559zm3.355-3.24v.668H9.376v-.669zm-1.579-.784h1.58v.657h-1.58zm1.58-.783v.65h-1.58V.95zm14.227.767a.463.463 0 0 0 .263.093c.188 0 .329-.155.329-.351 0-.28-.301-.645-1.116-.782l-.038.051c.248.26.504.651.562.99zm-.102 1.54c.09.06.177.086.256.086.193 0 .335-.158.335-.353 0-.277-.302-.63-1.118-.74l-.04.053c.252.246.496.616.567.954zM1.75 3.034l.069.052c.277-.334.453-.534.626-.773V5.92h.101c.318 0 .54-.167.54-.206v-.297h2.696c.073 0 .124-.017.142-.068l-.652-.568-.367.51h-.418V4.064h1.145c.078 0 .124-.018.142-.07l-.589-.528-.335.471h-.363V2.76h1.145c.078 0 .124-.018.142-.07l-.589-.534-.335.471h-.363V1.463h1.214c.078 0 .124-.018.142-.069L5.216.82l-.36.51H3.198l-.13-.038c.147-.305.267-.626.374-.927.135-.005.192-.036.222-.097L2.749 0c-.115.947-.508 2.122-.998 3.033zM.078 4.868l.328.823a.226.226 0 0 0 .13-.155c.727-.444 1.36-.868 1.706-1.134l-.024-.073a36.08 36.08 0 0 1-2.14.54zm3.788-.804v1.228h-.778V4.064zm0-1.304v1.177h-.778V2.76zm-.778-.133V1.463h.778v1.164zM3.836 0l-.051.04c.157.262.275.656.258 1.01.54.555 1.262-.59-.207-1.05zM.544 1.812c.39-.416.879-1.005 1.127-1.407.109-.008.175-.043.2-.096L.934.04C.849.496.639 1.22.424 1.8L0 1.756l.284.866a.245.245 0 0 0 .15-.147c.352-.178.547-.291.846-.478-.176.43-.37.913-.6 1.36-.217.008-.42.01-.654.013l.292.85a.219.219 0 0 0 .134-.14 37.045 37.045 0 0 0 1.735-.724l-.012-.09c-.434.037-.881.062-1.326.083.506-.513.996-1.302 1.271-1.797.102 0 .18-.028.217-.094l-.764-.292a9.01 9.01 0 0 1-.245.712c-.209-.008-.553-.045-.784-.067z" style="stroke-width:.264583"/></svg>
